X:90
T: Ich fahr wohl ber ein See (Band 1), S. 252
N: P0865
O: Lothringen
S: PINCK, Louis: Verklingende Weisen, Bd 1, Metz 1928]
R: Spottlied]
M: 2/2
L: 1/16
K: G
D4 | G6A2B2B2c4 | d4d2d2d4
d4 | e4d4c2c2B4 | z12
D4 | G6A2B2B2c4 | d4d2d2d4
d4 | e4d4c2c2B3B | A8z4
d4 | d4d4e6d2 | c4B4A4z4
B6B2d4c4 | B4d4g4z2
d2 | d6B2e4d4 | c4B4A4
e4 | d4d4d4d4 | z12
d4 | d4d4e6d2 | c4B4A4z4
B6B2d4c4 | B4d4g4z2 |  |  |  |  |  |  |  |  |  |  |  |  |  |  |  |  |  |  |  |  |  |  |  |  |  |  |  |  |  |  |  |  |  |  |  |  |  |  | 
d2 | d4d4e4d4 | c4B4A4 |  |  |  |  |  |  |  |  |  |  |  |  |  |  |  |  |  |  |  |  |  |  |  |  |  |  |  |  |  |  |  |  |  |  |  |  |  | 
e4 | d4d4c4F4 | G8z4

